icons/svgs/moon-outline.svg

<svg width="24" height="24" viewBox="0 0 24 24" fill="none" xmlns="http://www.w3.org/2000/svg">
<path d="M10.625 5.86719C8.39844 7 6.875 9.34375 6.875 12C6.875 15.8281 9.92188 18.875 13.7109 18.875C14.2188 18.875 14.7266 18.8359 15.2344 18.7188C11.7969 17.5469 9.33594 14.2656 9.33594 10.4375C9.33594 8.75781 9.80469 7.19531 10.625 5.86719ZM13.0469 3.28906C13.1641 3.28906 13.2422 3.28906 13.3203 3.28906C13.4766 3.28906 13.5938 3.28906 13.7109 3.28906C13.8281 3.28906 13.9453 3.28906 14.0234 3.28906C14.1797 3.28906 14.2969 3.28906 14.4531 3.28906C14.7266 3.32812 14.9609 3.52344 15 3.79688C15.0781 4.07031 14.9609 4.34375 14.7266 4.46094C14.5703 4.53906 14.4531 4.61719 14.3359 4.69531C14.1797 4.8125 14.0234 4.92969 13.8672 5.04688C13.7891 5.08594 13.75 5.125 13.7109 5.16406C12.1875 6.41406 11.2109 8.32812 11.2109 10.4766C11.2109 14.2656 14.2969 17.3125 18.0469 17.3516C18.0859 17.3516 18.0859 17.3516 18.0859 17.3516C18.125 17.3516 18.1641 17.3516 18.2031 17.3516C18.4375 17.3125 18.6328 17.3125 18.8281 17.3125C18.9453 17.2734 19.1016 17.2734 19.2578 17.2344C19.5312 17.1953 19.8047 17.3125 19.9219 17.5469C20.0391 17.8203 20 18.0938 19.8047 18.2891C19.6875 18.4062 19.6094 18.4844 19.4922 18.5625C19.2969 18.7188 19.1406 18.875 18.9453 19.0312C18.8672 19.0703 18.7891 19.1484 18.7109 19.1875C17.3047 20.1641 15.5859 20.75 13.7109 20.75C8.90625 20.75 5 16.8438 5 12C5 7.39062 8.55469 3.64062 13.0469 3.28906Z" fill="black"/>
</svg>

<svg xmlns="http://www.w3.org/2000/svg" width="24" height="24" fill="currentColor" class="icon-moon-outline" viewBox="0 0 24 24">
  <mask id="a" width="15" height="18" x="5" y="3" maskUnits="userSpaceOnUse" style="mask-type:alpha">
    <path d="M10.625 5.867A6.9 6.9 0 0 0 6.875 12c0 3.828 3.047 6.875 6.836 6.875.508 0 1.016-.04 1.523-.156a8.75 8.75 0 0 1-5.898-8.282c0-1.68.469-3.242 1.289-4.57m2.422-2.578h1.406c.274.04.508.234.547.508a.56.56 0 0 1-.273.664 3 3 0 0 0-.391.234l-.469.352a.5.5 0 0 0-.156.117 6.85 6.85 0 0 0-2.5 5.313c0 3.789 3.086 6.836 6.836 6.875h.156c.235-.04.43-.04.625-.04.117-.039.274-.039.43-.078.273-.039.547.078.664.313.117.273.078.547-.117.742a2 2 0 0 1-.313.273c-.195.157-.351.313-.547.47-.078.038-.156.116-.234.155a8.73 8.73 0 0 1-5 1.563C8.906 20.75 5 16.844 5 12c0-4.61 3.555-8.36 8.047-8.71"/>
  </mask>
  <g mask="url(#a)">
    <path d="M0 0h24v24H0z"/>
  </g>
</svg>
